tools/download-figma-icons/icons/action/instagram.svg

<svg width="24" height="24" viewBox="0 0 24 24" fill="none" xmlns="http://www.w3.org/2000/svg">
<path fill-rule="evenodd" clip-rule="evenodd" d="M7.67091 1.56306C8.79085 1.51197 9.14843 1.49988 12.0001 1.49988C14.8517 1.49988 15.2093 1.51197 16.3292 1.56306C17.4469 1.61404 18.2101 1.79156 18.878 2.05114C19.5685 2.31943 20.1541 2.67847 20.7378 3.2622C21.3216 3.84597 21.6806 4.43153 21.9489 5.122C22.2085 5.78989 22.386 6.55317 22.437 7.67078C22.4881 8.79073 22.5001 9.1483 22.5001 12C22.5001 14.8516 22.4881 15.2092 22.437 16.3291C22.386 17.4467 22.2085 18.21 21.9489 18.8779C21.6806 19.5684 21.3216 20.1539 20.7378 20.7377C20.1541 21.3214 19.5685 21.6805 18.878 21.9488C18.2101 22.2083 17.4469 22.3859 16.3292 22.4368C15.2093 22.4879 14.8517 22.5 12.0001 22.5C9.14843 22.5 8.79085 22.4879 7.67091 22.4368C6.5533 22.3859 5.79001 22.2083 5.12213 21.9488C4.43165 21.6805 3.84609 21.3214 3.26232 20.7377C2.67859 20.1539 2.31956 19.5684 2.05126 18.8779C1.79168 18.21 1.61416 17.4467 1.56319 16.3291C1.51209 15.2092 1.5 14.8516 1.5 12C1.5 9.1483 1.51209 8.79073 1.56319 7.67078C1.61416 6.55317 1.79168 5.78989 2.05126 5.122C2.31956 4.43153 2.67859 3.84597 3.26232 3.2622C3.84609 2.67847 4.43165 2.31943 5.12213 2.05114C5.79001 1.79156 6.5533 1.61404 7.67091 1.56306ZM16.243 3.45301C15.1358 3.40249 14.8037 3.39178 12.0001 3.39178C9.19644 3.39178 8.86434 3.40249 7.75715 3.45301C6.7334 3.49969 6.17743 3.67075 5.80743 3.81454C5.31732 4.00502 4.96754 4.23255 4.60013 4.60001C4.23268 4.96742 4.00514 5.31719 3.81467 5.80731C3.67087 6.17731 3.49981 6.73328 3.45313 7.75702C3.40262 8.86421 3.3919 9.19632 3.3919 12C3.3919 14.8036 3.40262 15.1357 3.45313 16.2429C3.49981 17.2666 3.67087 17.8226 3.81467 18.1926C4.00514 18.6827 4.23272 19.0325 4.60013 19.3999C4.96754 19.7674 5.31732 19.9949 5.80743 20.1854C6.17743 20.3292 6.7334 20.5002 7.75715 20.5469C8.86421 20.5974 9.19623 20.6081 12.0001 20.6081C14.8039 20.6081 15.136 20.5974 16.243 20.5469C17.2668 20.5002 17.8227 20.3292 18.1927 20.1854C18.6828 19.9949 19.0326 19.7674 19.4 19.3999C19.7675 19.0325 19.995 18.6827 20.1855 18.1926C20.3293 17.8226 20.5003 17.2666 20.547 16.2429C20.5975 15.1357 20.6082 14.8036 20.6082 12C20.6082 9.19632 20.5975 8.86421 20.547 7.75702C20.5003 6.73328 20.3293 6.17731 20.1855 5.80731C19.995 5.31719 19.7675 4.96742 19.4 4.60001C19.0326 4.23255 18.6828 4.00502 18.1927 3.81454C17.8227 3.67075 17.2668 3.49969 16.243 3.45301ZM6.67976 11.9967C6.67976 9.05645 9.06321 6.673 12.0034 6.673C14.9436 6.673 17.327 9.05645 17.327 11.9967C17.327 14.9368 14.9436 17.3203 12.0034 17.3203C9.06321 17.3203 6.67976 14.9368 6.67976 11.9967ZM8.5477 11.9967C8.5477 13.9052 10.0949 15.4523 12.0034 15.4523C13.9119 15.4523 15.4591 13.9052 15.4591 11.9967C15.4591 10.0881 13.9119 8.54094 12.0034 8.54094C10.0949 8.54094 8.5477 10.0881 8.5477 11.9967ZM17.4709 7.82406C18.1861 7.82406 18.7658 7.24432 18.7658 6.52914C18.7658 5.81396 18.1861 5.23418 17.4709 5.23418C16.7557 5.23418 16.176 5.81396 16.176 6.52914C16.176 7.24432 16.7557 7.82406 17.4709 7.82406Z" fill="black"/>
</svg>

<svg width="24" height="24" viewBox="0 0 24 24" fill="none" xmlns="http://www.w3.org/2000/svg"><path fill-rule="evenodd" clip-rule="evenodd" d="M7.67 1.563C8.79 1.512 9.149 1.5 12 1.5c2.852 0 3.21.012 4.33.063 1.117.051 1.88.229 2.548.488.69.268 1.276.627 1.86 1.211a5.13 5.13 0 0 1 1.21 1.86c.26.668.438 1.431.489 2.549.051 1.12.063 1.477.063 4.329 0 2.852-.012 3.21-.063 4.33-.051 1.117-.229 1.88-.488 2.548a5.146 5.146 0 0 1-1.211 1.86 5.146 5.146 0 0 1-1.86 1.21c-.668.26-1.431.438-2.549.489-1.12.05-1.477.063-4.329.063-2.852 0-3.21-.012-4.33-.063-1.117-.051-1.88-.229-2.548-.488a5.147 5.147 0 0 1-1.86-1.211 5.147 5.147 0 0 1-1.21-1.86c-.26-.668-.438-1.431-.489-2.549C1.513 15.21 1.5 14.852 1.5 12c0-2.852.012-3.21.063-4.33.051-1.117.229-1.88.488-2.548a5.147 5.147 0 0 1 1.211-1.86 5.147 5.147 0 0 1 1.86-1.21c.668-.26 1.431-.438 2.549-.489Zm8.573 1.89c-1.107-.05-1.44-.061-4.243-.061-2.804 0-3.136.01-4.243.061-1.024.047-1.58.218-1.95.362-.49.19-.84.418-1.207.785a3.253 3.253 0 0 0-.785 1.207c-.144.37-.315.926-.362 1.95-.05 1.107-.061 1.44-.061 4.243 0 2.804.01 3.136.061 4.243.047 1.024.218 1.58.362 1.95.19.49.418.84.785 1.207.368.367.717.595 1.207.785.37.144.926.315 1.95.362 1.107.05 1.44.061 4.243.061 2.804 0 3.136-.01 4.243-.061 1.024-.047 1.58-.218 1.95-.362.49-.19.84-.418 1.207-.785.367-.367.595-.717.786-1.207.143-.37.314-.926.361-1.95.05-1.107.061-1.44.061-4.243 0-2.804-.01-3.136-.061-4.243-.047-1.024-.218-1.58-.361-1.95A3.263 3.263 0 0 0 19.4 4.6a3.253 3.253 0 0 0-1.207-.785c-.37-.144-.926-.315-1.95-.362ZM6.68 11.997a5.324 5.324 0 1 1 10.647 0 5.324 5.324 0 0 1-10.647 0Zm1.868 0a3.456 3.456 0 1 0 6.911 0 3.456 3.456 0 0 0-6.911 0Zm8.923-4.173a1.295 1.295 0 1 0 0-2.59 1.295 1.295 0 0 0 0 2.59Z" fill="currentColor"/></svg>
